X: 50
T:Jig of Slurs
M:6/8
L:1/8
S:Taken From Fiddlesticks collection
K:D
|:"D"Add "G"dcd|Bdd "D"Add|"G"Bdd "D"Add|"Em"Bee edB|!
"D"Add "G"dcd|Bdd "D"Add|"G"Bdd "A"cde|"Bm"fec "G"d2B:|!
|:"D"A2f "Bm"fef|"D"a2f "Bm"fed|"Em"B2e ede|"Bm"f2f "Em"edB|!
"D"A2f "Bm"fef|"D"a2f "Bm"fed|"G"Bdd "A"cde|"Bm"fec "G"d2B:|!
K:G
|:"G"G2g gfg|"D"agf "G"gdB|G2g gfg|"D"agf "G"g3|!
G2g gfg|"D"agf "G"gdB|"Em"e2e efg|"Bm"fed "Em"edB:|!
|:"G"GBB Bdd|"Em"dee edB|"G"GBB Bdd|"Em"dee efg|!
"G"GBB Bdd|"Em"dee edB|e2e efg|"Bm"fed "Em"edB:|*
